X: 1
T: Huckleberry, The
M: 4/4
L: 1/8
R: hornpipe
K: Amaj
|:(3efg | a2e2 c2(3cd^d | e2c2 A2(3ABc | d2A2 F2 (3F=G^G | ABAF D2 (3G=GF |
E^DEF G=G^GA | B^ABc dcB=A | efed cABG | A2Ac (3def :|
|: (3ag=g | fdAd fagf | eaec Acec | dcBA GABc | ABcd e2 (3ag=g |
fdAd fagf | eaec Acea | bagf edcB | A2Ac (3def:|
|: (3dcB | AGAB c^Bcd | e^def =gfec | dcde f^efg | abag fedf |
e^def gfga | bc'ba gfeg | e'f'e'd' c'abg |1 a2ec (3ded :|2 a2ec (3def ||
